img/svg/Viber.svg

<svg width="50" height="53" viewBox="0 0 50 53" fill="none" xmlns="http://www.w3.org/2000/svg">
<path d="M44.3615 5.13443C43.0537 3.92965 37.7609 0.0887919 25.9603 0.0373059C25.9603 0.0373059 12.0488 -0.796768 5.27324 5.42275C1.50446 9.19153 0.176122 14.7211 0.0319607 21.5688C-0.1122 28.4164 -0.287253 41.2467 12.0797 44.7272H12.09L12.0797 50.0406C12.0797 50.0406 11.9973 52.1927 13.4183 52.6252C15.1277 53.1606 16.1368 51.5234 17.7741 49.7625C18.6699 48.7946 19.9056 47.3736 20.8426 46.2924C29.3069 47.0029 35.8045 45.3759 36.5459 45.1391C38.2552 44.583 47.9243 43.3474 49.4895 30.517C51.1164 17.2748 48.7069 8.9135 44.3615 5.13443ZM45.7928 29.5491C44.4644 40.2582 36.6283 40.9378 35.1866 41.4012C34.5688 41.5969 28.8539 43.0179 21.6767 42.5545C21.6767 42.5545 16.3221 49.0108 14.654 50.6893C14.1082 51.235 13.511 51.1836 13.5213 50.1023C13.5213 49.3918 13.5625 41.2776 13.5625 41.2776C13.5522 41.2776 13.5522 41.2776 13.5625 41.2776C3.07993 38.3738 3.69777 27.4485 3.81104 21.7335C3.92431 16.0186 5.00551 11.3333 8.19765 8.1824C13.9332 2.98231 25.7441 3.7546 25.7441 3.7546C35.7221 3.79579 40.5 6.80257 41.6121 7.8117C45.2882 10.9626 47.1623 18.5002 45.7928 29.5491ZM31.4796 21.229C31.5208 22.1145 30.1925 22.1763 30.1513 21.2908C30.038 19.0254 28.9774 17.9236 26.7944 17.8C25.9089 17.7485 25.9912 16.4202 26.8665 16.4717C29.7394 16.6261 31.3355 18.2737 31.4796 21.229ZM33.57 22.3926C33.673 18.0265 30.9442 14.6079 25.7647 14.2269C24.8894 14.1651 24.9821 12.8367 25.8574 12.8985C31.8298 13.331 35.0116 17.4396 34.8983 22.4234C34.888 23.309 33.5494 23.2678 33.57 22.3926ZM38.4097 23.7724C38.42 24.6579 37.0813 24.6682 37.0813 23.7827C37.0195 15.3904 31.4282 10.8185 24.6423 10.767C23.767 10.7567 23.767 9.43866 24.6423 9.43866C32.2313 9.49014 38.3376 14.7314 38.4097 23.7724ZM37.2461 33.8739V33.8945C36.134 35.851 34.054 38.0134 31.9121 37.3235L31.8915 37.2926C29.7188 36.6851 24.6011 34.049 21.3678 31.4747C19.6996 30.1566 18.1756 28.6018 17.0018 27.1087C15.9412 25.7803 14.8702 24.2049 13.8302 22.3102C11.6369 18.3457 11.1529 16.5746 11.1529 16.5746C10.463 14.4328 12.6152 12.3528 14.5819 11.2407H14.6025C15.5499 10.7464 16.456 10.9112 17.0635 11.6423C17.0635 11.6423 18.3404 13.1663 18.8862 13.9179C19.401 14.6182 20.0909 15.7406 20.4513 16.3687C21.0795 17.4911 20.6882 18.6341 20.0703 19.1077L18.8347 20.0963C18.2065 20.6008 18.2889 21.5379 18.2889 21.5379C18.2889 21.5379 20.1218 28.4679 26.9695 30.2184C26.9695 30.2184 27.9065 30.3008 28.4111 29.6727L29.3996 28.437C29.8733 27.8192 31.0163 27.4279 32.1387 28.056C33.6524 28.9107 35.5779 30.239 36.8548 31.4438C37.5756 32.0307 37.7404 32.9266 37.2461 33.8739Z" fill="white"/>
</svg>

<svg width="50" height="53" fill="none" xmlns="http://www.w3.org/2000/svg"><path d="M44.361 5.134C43.054 3.93 37.761.09 25.962.037c0 0-13.912-.834-20.688 5.386C1.504 9.192.176 14.72.032 21.569c-.144 6.847-.32 19.678 12.048 23.158h.01l-.01 5.314s-.083 2.152 1.338 2.584c1.71.536 2.719-1.102 4.356-2.862.896-.968 2.132-2.39 3.069-3.47 8.464.71 14.961-.917 15.703-1.154 1.71-.556 11.378-1.792 12.944-14.622 1.626-13.242-.783-21.603-5.129-25.383zm1.432 24.415c-1.329 10.71-9.165 11.389-10.606 11.852-.618.196-6.333 1.617-13.51 1.153 0 0-5.355 6.457-7.023 8.135-.546.546-1.143.495-1.133-.587 0-.71.041-8.824.041-8.824-.01 0-.01 0 0 0-10.482-2.904-9.864-13.83-9.751-19.544.113-5.715 1.195-10.4 4.387-13.552 5.735-5.2 17.546-4.427 17.546-4.427 9.978.04 14.756 3.048 15.868 4.057 3.676 3.15 5.55 10.688 4.18 21.737zM31.48 21.23c.04.886-1.288.947-1.329.062-.113-2.266-1.174-3.367-3.357-3.491-.885-.052-.803-1.38.072-1.328 2.873.154 4.47 1.802 4.614 4.757zm2.09 1.164c.103-4.367-2.626-7.785-7.805-8.166-.876-.062-.783-1.39.092-1.329 5.973.433 9.155 4.542 9.041 9.525-.01.886-1.349.845-1.328-.03zm4.84 1.38c.01.885-1.329.895-1.329.01-.062-8.393-5.653-12.965-12.439-13.016-.875-.01-.875-1.328 0-1.328 7.59.051 13.696 5.292 13.768 14.333zm-1.164 10.1v.022c-1.112 1.956-3.192 4.118-5.334 3.428l-.02-.03c-2.173-.608-7.29-3.244-10.524-5.818a26.916 26.916 0 01-4.366-4.366 33.417 33.417 0 01-3.172-4.799c-2.193-3.964-2.677-5.735-2.677-5.735-.69-2.142 1.462-4.222 3.429-5.334h.02c.948-.495 1.854-.33 2.462.401 0 0 1.276 1.524 1.822 2.276.515.7 1.205 1.823 1.565 2.45.628 1.123.237 2.266-.38 2.74l-1.236.988c-.629.505-.546 1.442-.546 1.442s1.833 6.93 8.68 8.68c0 0 .938.083 1.442-.545l.989-1.236c.473-.618 1.616-1.01 2.739-.381 1.513.855 3.439 2.183 4.716 3.388.72.587.885 1.483.391 2.43z" fill="#fff"/></svg>
